src/-/IMG/Icons/20/Spotify.svg

<svg height="20" viewBox="0 0 20 20" width="20" xmlns="http://www.w3.org/2000/svg" xmlns:xlink="http://www.w3.org/1999/xlink"><defs><linearGradient id="a" x1="50%" x2="50%" y1="0%" y2="100%"><stop offset="0" stop-opacity="0"/><stop offset="1"/></linearGradient><path id="b" d="m9.99994029 0c-5.52269728 0-9.99994029 4.47723052-9.99994029 10.0000597 0 5.523068 4.47724301 9.9999403 9.99994029 9.9999403 5.52329431 0 10.00005971-4.4768723 10.00005971-9.9999403 0-5.52247093-4.4767654-9.99958204-10.00017912-9.99958204zm4.58590821 14.4229564c-.1791184.2937611-.5636259.3869049-.85738.2065881-2.3478837-1.4341754-5.30357582-1.7589845-8.78444299-.9636799-.33542902.0764257-.66978333-.1337449-.74620717-.4693014-.07678208-.3355564.1325476-.6699187.4688125-.7463444 3.80925087-.8706555 7.07672836-.4955727 9.71263446 1.1153371.2937541.1803168.3868957.5636393.2065832.8574005zm1.2239755-2.7232615c-.2256891.3672014-.7057264.4830341-1.072322.2573395-2.6879698-1.6525856-6.78536243-2.13108192-9.96471366-1.165969-.41233051.1245499-.847827-.1078319-.97297104-.5194557-.12418874-.4123404.10830691-.84701138.51992095-.97239724 3.63168485-1.10196259 8.14654275-.56817707 11.23334945 1.32873184.3665956.2256946.4824255.7057433.2567363 1.07187zm.1050828-2.83539225c-3.2229367-1.91434355-8.5403643-2.09036141-11.61749864-1.15641588-.49412791.14986596-1.01667592-.12908773-1.16641889-.62322743-.14974296-.49437854.12896523-1.01658079.62345137-1.16680499 3.53233386-1.07234764 9.40443136-.86516243 13.11504776 1.337688.4454077.26378797.5910906.83781638.3271896 1.28168232-.262707.44446302-.8382741.59098536-1.2812935.32707798z"/></defs><g fill="none"><use fill="#14b761" xlink:href="#b"/><use fill="url(#a)" fill-opacity=".1" xlink:href="#b"/></g></svg>

<?xml version="1.0" encoding="UTF-8"?>
<svg width="20px" height="20px" viewBox="0 0 20 20" version="1.1" xmlns="http://www.w3.org/2000/svg" xmlns:xlink="http://www.w3.org/1999/xlink">
    <title>Logos/Spotify</title>
    <defs>
        <linearGradient x1="50%" y1="0%" x2="50%" y2="100%" id="linearGradient-1">
            <stop stop-color="#000000" stop-opacity="0" offset="0%"></stop>
            <stop stop-color="#000000" offset="100%"></stop>
        </linearGradient>
        <path d="M9.99994029,0 C4.47724301,0 0,4.47723052 0,10.0000597 C0,15.5231277 4.47724301,20 9.99994029,20 C15.5232346,20 20,15.5231277 20,10.0000597 C20,4.47758877 15.5232346,0.000477660419 9.99982088,0.000477660419 L9.99994029,0 L9.99994029,0 Z M14.5858485,14.4229564 C14.4067301,14.7167175 14.0222226,14.8098613 13.7284685,14.6295445 C11.3805848,13.1953691 8.42489268,12.87056 4.94402551,13.6658646 C4.60859649,13.7422903 4.27424218,13.5321197 4.19781834,13.1965632 C4.12103626,12.8610068 4.33036594,12.5266445 4.66663084,12.4502188 C8.47588171,11.5795633 11.7433592,11.9546461 14.3792653,13.5655559 C14.6730194,13.7458727 14.766161,14.1291952 14.5858485,14.4229564 L14.5858485,14.4229564 Z M15.809824,11.6996949 C15.5841349,12.0668963 15.1040976,12.182729 14.737502,11.9570344 C12.0495322,10.3044488 7.95213957,9.82595248 4.77278834,10.7910654 C4.36045783,10.9156153 3.92496134,10.6832335 3.7998173,10.2716097 C3.67562856,9.8592693 3.90812421,9.42459832 4.31973825,9.29921246 C7.9514231,8.19724987 12.466281,8.73103539 15.5530877,10.6279443 C15.9196833,10.8536389 16.0355132,11.3336876 15.809824,11.6998143 L15.809824,11.6996949 Z M15.9149068,8.86430265 C12.6919701,6.9499591 7.3745425,6.77394124 4.29740816,7.70788677 C3.80328025,7.85775273 3.28073224,7.57879904 3.13098927,7.08465934 C2.98124631,6.5902808 3.2599545,6.06807855 3.75444064,5.91785435 C7.2867745,4.84550671 13.158872,5.05269192 16.8694884,7.25554235 C17.3148961,7.51933032 17.460579,8.09335873 17.196678,8.53722467 C16.933971,8.98168769 16.3584039,9.12821003 15.9153845,8.86430265 L15.9149068,8.86430265 Z" id="path-2"></path>
    </defs>
    <g id="Logos/Spotify" stroke="none" stroke-width="1" fill="none" fill-rule="evenodd">
        <g id="Spotify-Logo" fill-rule="nonzero">
            <g id="Shape">
                <use fill="#1ED760" xlink:href="#path-2"></use>
                <use fill-opacity="0.1" fill="url(#linearGradient-1)" style="mix-blend-mode: normal;" xlink:href="#path-2"></use>
            </g>
        </g>
    </g>
</svg>
